assets/img/gen/maze/maze8.svg

<svg viewBox="0 0 300 300" xmlns="http://www.w3.org/2000/svg"><circle cx="25" cy="25" r="3" stroke="#000" fill="grey"/><path stroke="#000" stroke-width="10" fill="none" d="M0 0h50M0 0v50"/><circle cx="25" cy="75" r="3" stroke="#000" fill="grey"/><path stroke="#000" stroke-width="10" fill="none" d="M0 50v50"/><circle cx="25" cy="125" r="3" stroke="#000" fill="grey"/><path stroke="#000" stroke-width="10" fill="none" d="M0 100v50"/><circle cx="25" cy="175" r="3" stroke="#000" fill="grey"/><path stroke="#000" stroke-width="10" fill="none" d="M0 150v50"/><circle cx="25" cy="225" r="3" stroke="#000" fill="grey"/><circle cx="25" cy="225" r="15" stroke="#000" fill="none"/><path stroke="#000" stroke-width="10" fill="none" d="M0 200v50"/><circle cx="25" cy="275" r="3" stroke="#000" fill="grey"/><path stroke="#000" stroke-width="10" fill="none" d="M0 250v50m0 0h50"/><circle cx="75" cy="25" r="3" stroke="#000" fill="grey"/><path stroke="#000" stroke-width="10" fill="none" d="M50 0h50"/><path stroke="#000" stroke-width="3" fill="none" d="M50 0v50"/><circle cx="75" cy="75" r="3" stroke="#000" fill="grey"/><path stroke="#000" stroke-width="3" fill="none" d="M50 50v50"/><circle cx="75" cy="125" r="3" stroke="#000" fill="grey"/><circle cx="75" cy="175" r="3" stroke="#000" fill="grey"/><path stroke="#000" stroke-width="3" fill="none" d="M50 150h50m-50 0v50"/><circle cx="75" cy="225" r="3" stroke="#000" fill="grey"/><path stroke="#000" stroke-width="3" fill="none" d="M50 200v50"/><circle cx="75" cy="275" r="3" stroke="#000" fill="grey"/><path stroke="#000" stroke-width="10" fill="none" d="M50 300h50"/><circle cx="125" cy="25" r="3" stroke="#000" fill="grey"/><path stroke="#000" stroke-width="10" fill="none" d="M100 0h50"/><circle cx="125" cy="75" r="3" stroke="#000" fill="grey"/><circle cx="125" cy="75" r="15" stroke="#000" fill="none"/><path stroke="#000" stroke-width="3" fill="none" d="M100 50h50m-50 0v50"/><circle cx="125" cy="125" r="3" stroke="#000" fill="grey"/><circle cx="125" cy="175" r="3" stroke="#000" fill="grey"/><path stroke="#000" stroke-width="3" fill="none" d="M100 150h50m-50 0v50"/><circle cx="125" cy="225" r="3" stroke="#000" fill="grey"/><path stroke="#000" stroke-width="3" fill="none" d="M100 200v50"/><circle cx="125" cy="275" r="3" stroke="#000" fill="grey"/><path stroke="#000" stroke-width="3" fill="none" d="M100 250v50"/><path stroke="#000" stroke-width="10" fill="none" d="M100 300h50"/><circle cx="175" cy="25" r="3" stroke="#000" fill="grey"/><path stroke="#000" stroke-width="10" fill="none" d="M150 0h50"/><circle cx="175" cy="75" r="3" stroke="#000" fill="grey"/><path stroke="#000" stroke-width="3" fill="none" d="M150 50h50"/><circle cx="175" cy="125" r="3" stroke="#000" fill="grey"/><path stroke="#000" stroke-width="3" fill="none" d="M150 100h50m-50 0v50"/><circle cx="175" cy="175" r="3" stroke="#000" fill="grey"/><circle cx="175" cy="225" r="3" stroke="#000" fill="grey"/><path stroke="#000" stroke-width="3" fill="none" d="M150 200h50m-50 0v50"/><circle cx="175" cy="275" r="3" stroke="#000" fill="grey"/><path stroke="#000" stroke-width="10" fill="none" d="M150 300h50"/><circle cx="225" cy="25" r="3" stroke="#000" fill="grey"/><path stroke="#000" stroke-width="10" fill="none" d="M200 0h50"/><circle cx="225" cy="75" r="3" stroke="#000" fill="grey"/><path stroke="#000" stroke-width="3" fill="none" d="M200 50v50"/><circle cx="225" cy="125" r="3" stroke="#000" fill="grey"/><circle cx="225" cy="175" r="3" stroke="#000" fill="grey"/><path stroke="#000" stroke-width="3" fill="none" d="M200 150h50m-50 0v50"/><circle cx="225" cy="225" r="3" stroke="#000" fill="grey"/><path stroke="#000" stroke-width="3" fill="none" d="M200 200h50"/><circle cx="225" cy="275" r="3" stroke="#000" fill="grey"/><path stroke="#000" stroke-width="3" fill="none" d="M200 250v50"/><path stroke="#000" stroke-width="10" fill="none" d="M200 300h50"/><circle cx="275" cy="25" r="3" stroke="#000" fill="grey"/><path stroke="#000" stroke-width="10" fill="none" d="M250 0h50m0 0v50"/><circle cx="275" cy="75" r="3" stroke="#000" fill="grey"/><path stroke="#000" stroke-width="3" fill="none" d="M250 50v50"/><path stroke="#000" stroke-width="10" fill="none" d="M300 50v50"/><circle cx="275" cy="125" r="3" stroke="#000" fill="grey"/><path stroke="#000" stroke-width="3" fill="none" d="M250 100v50"/><path stroke="#000" stroke-width="10" fill="none" d="M300 100v50"/><circle cx="275" cy="175" r="3" stroke="#000" fill="grey"/><path stroke="#000" stroke-width="10" fill="none" d="M300 150v50"/><circle cx="275" cy="225" r="3" stroke="#000" fill="grey"/><path stroke="#000" stroke-width="3" fill="none" d="M250 200v50"/><path stroke="#000" stroke-width="10" fill="none" d="M300 200v50"/><circle cx="275" cy="275" r="3" stroke="#000" fill="grey"/><path stroke="#000" stroke-width="3" fill="none" d="M250 250h50"/><path stroke="#000" stroke-width="10" fill="none" d="M300 250v50m-50 0h50"/></svg>

<svg viewBox="0 0 300 300" xmlns="http://www.w3.org/2000/svg"><circle cx="25" cy="25" r="3" stroke="#000" fill="grey"/><path stroke="#000" stroke-width="10" fill="none" d="M0 0h50M0 0v50"/><circle cx="25" cy="75" r="3" stroke="#000" fill="grey"/><path stroke="#000" stroke-width="10" fill="none" d="M0 50v50"/><circle cx="25" cy="125" r="3" stroke="#000" fill="grey"/><path stroke="#000" stroke-width="10" fill="none" d="M0 100v50"/><circle cx="25" cy="175" r="3" stroke="#000" fill="grey"/><path stroke="#000" stroke-width="10" fill="none" d="M0 150v50"/><circle cx="25" cy="225" r="3" stroke="#000" fill="grey"/><circle cx="25" cy="225" r="15" stroke="#000" fill="none"/><path stroke="#000" stroke-width="10" fill="none" d="M0 200v50"/><circle cx="25" cy="275" r="3" stroke="#000" fill="grey"/><path stroke="#000" stroke-width="10" fill="none" d="M0 250v50M0 300h50"/><circle cx="75" cy="25" r="3" stroke="#000" fill="grey"/><path stroke="#000" stroke-width="10" fill="none" d="M50 0h50"/><path stroke="#000" stroke-width="3" fill="none" d="M50 0v50"/><circle cx="75" cy="75" r="3" stroke="#000" fill="grey"/><path stroke="#000" stroke-width="3" fill="none" d="M50 50v50"/><circle cx="75" cy="125" r="3" stroke="#000" fill="grey"/><circle cx="75" cy="175" r="3" stroke="#000" fill="grey"/><path stroke="#000" stroke-width="3" fill="none" d="M50 150h50M50 150v50"/><circle cx="75" cy="225" r="3" stroke="#000" fill="grey"/><path stroke="#000" stroke-width="3" fill="none" d="M50 200v50"/><circle cx="75" cy="275" r="3" stroke="#000" fill="grey"/><path stroke="#000" stroke-width="10" fill="none" d="M50 300h50"/><circle cx="125" cy="25" r="3" stroke="#000" fill="grey"/><path stroke="#000" stroke-width="10" fill="none" d="M100 0h50"/><circle cx="125" cy="75" r="3" stroke="#000" fill="grey"/><circle cx="125" cy="75" r="15" stroke="#000" fill="none"/><path stroke="#000" stroke-width="3" fill="none" d="M100 50h50M100 50v50"/><circle cx="125" cy="125" r="3" stroke="#000" fill="grey"/><circle cx="125" cy="175" r="3" stroke="#000" fill="grey"/><path stroke="#000" stroke-width="3" fill="none" d="M100 150h50M100 150v50"/><circle cx="125" cy="225" r="3" stroke="#000" fill="grey"/><path stroke="#000" stroke-width="3" fill="none" d="M100 200v50"/><circle cx="125" cy="275" r="3" stroke="#000" fill="grey"/><path stroke="#000" stroke-width="3" fill="none" d="M100 250v50"/><path stroke="#000" stroke-width="10" fill="none" d="M100 300h50"/><circle cx="175" cy="25" r="3" stroke="#000" fill="grey"/><path stroke="#000" stroke-width="10" fill="none" d="M150 0h50"/><circle cx="175" cy="75" r="3" stroke="#000" fill="grey"/><path stroke="#000" stroke-width="3" fill="none" d="M150 50h50"/><circle cx="175" cy="125" r="3" stroke="#000" fill="grey"/><path stroke="#000" stroke-width="3" fill="none" d="M150 100h50M150 100v50"/><circle cx="175" cy="175" r="3" stroke="#000" fill="grey"/><circle cx="175" cy="225" r="3" stroke="#000" fill="grey"/><path stroke="#000" stroke-width="3" fill="none" d="M150 200h50M150 200v50"/><circle cx="175" cy="275" r="3" stroke="#000" fill="grey"/><path stroke="#000" stroke-width="10" fill="none" d="M150 300h50"/><circle cx="225" cy="25" r="3" stroke="#000" fill="grey"/><path stroke="#000" stroke-width="10" fill="none" d="M200 0h50"/><circle cx="225" cy="75" r="3" stroke="#000" fill="grey"/><path stroke="#000" stroke-width="3" fill="none" d="M200 50v50"/><circle cx="225" cy="125" r="3" stroke="#000" fill="grey"/><circle cx="225" cy="175" r="3" stroke="#000" fill="grey"/><path stroke="#000" stroke-width="3" fill="none" d="M200 150h50M200 150v50"/><circle cx="225" cy="225" r="3" stroke="#000" fill="grey"/><path stroke="#000" stroke-width="3" fill="none" d="M200 200h50"/><circle cx="225" cy="275" r="3" stroke="#000" fill="grey"/><path stroke="#000" stroke-width="3" fill="none" d="M200 250v50"/><path stroke="#000" stroke-width="10" fill="none" d="M200 300h50"/><circle cx="275" cy="25" r="3" stroke="#000" fill="grey"/><path stroke="#000" stroke-width="10" fill="none" d="M250 0h50M300 0v50"/><circle cx="275" cy="75" r="3" stroke="#000" fill="grey"/><path stroke="#000" stroke-width="3" fill="none" d="M250 50v50"/><path stroke="#000" stroke-width="10" fill="none" d="M300 50v50"/><circle cx="275" cy="125" r="3" stroke="#000" fill="grey"/><path stroke="#000" stroke-width="3" fill="none" d="M250 100v50"/><path stroke="#000" stroke-width="10" fill="none" d="M300 100v50"/><circle cx="275" cy="175" r="3" stroke="#000" fill="grey"/><path stroke="#000" stroke-width="10" fill="none" d="M300 150v50"/><circle cx="275" cy="225" r="3" stroke="#000" fill="grey"/><path stroke="#000" stroke-width="3" fill="none" d="M250 200v50"/><path stroke="#000" stroke-width="10" fill="none" d="M300 200v50"/><circle cx="275" cy="275" r="3" stroke="#000" fill="grey"/><path stroke="#000" stroke-width="3" fill="none" d="M250 250h50"/><path stroke="#000" stroke-width="10" fill="none" d="M300 250v50M250 300h50"/></svg>
